X: 3
T: Sean Nugent's March
Z: ceolachan
S: https://thesession.org/tunes/11952#setting30118
R: barndance
M: 4/4
L: 1/8
K: Dmaj
|: d>e |fd g>e fd AF | GE A/G/F/E D2 de/f/ | g/a/b ec d>B cA | GE G/F/E/D/ E2 dd/e/ |
fd g/f/e fd A>F | GB ef g>f ed | c/d/e AF GA cA | d2 d>c d2 :|
|: A/B/c/d/ |eA c/B/A EA ge | fA ge d2 c/d/e/f/ | gb ec d>B c/B/A | d>A GF E2 A>G |
F/E/D B>A GE c/B/A/G/ | FA ef g2 e>d | c/d/e af gA ce | d2 A/G/F/E/ D2 :|
